packages/components/src/telekom/icons/weather/moon-sleet/selected.svg

<?xml version="1.0" encoding="UTF-8"?>
<svg width="24px" height="24px" viewBox="0 0 24 24" version="1.1" xmlns="http://www.w3.org/2000/svg" xmlns:xlink="http://www.w3.org/1999/xlink">
    <title>icon/weather/moon-sleet/selected</title>
    <g id="icon/weather/moon-sleet/selected" stroke="none" stroke-width="1" fill="none" fill-rule="evenodd">
        <path d="M11.1986,19.17145 C11.2830375,19.0940125 11.4111156,19.1474969 11.4281,19.2484979 L11.4281,19.29445 L10.9591,22.29345 C10.8566,22.94895 10.2421,23.39695 9.5866,23.29445 C8.63305833,23.1454292 8.25030399,22.0031557 8.87356423,21.3092924 L8.9606,21.22145 L11.1986,19.17145 Z M7.4781,15.82295 L8.5176,16.42295 L7.8371,17.60145 L9.1981,17.60145 L9.1981,18.80145 L7.8371,18.80145 L8.5176,19.97995 L7.4781,20.57995 L6.7981,19.40145 L6.1176,20.57995 L5.0781,19.97995 L5.7586,18.80145 L4.3981,18.80145 L4.3981,17.60145 L5.7586,17.60145 L5.0781,16.42295 L6.1176,15.82295 L6.7981,17.00145 L7.4781,15.82295 Z M13.4756,13.81545 C13.5471714,13.7503071 13.6551102,13.7931643 13.6734688,13.8766395 L13.6746,13.92145 L13.1531,17.25545 C13.0421,17.96545 12.3761,18.45145 11.6661,18.33995 C10.6317,18.17819 10.2175368,16.9367756 10.8973865,16.1861132 L10.9881,16.09495 L13.4756,13.81545 Z M10.1066,5.94995 C12.4606,5.94995 14.5341,7.41695 15.3396,9.62395 C16.7206,10.35145 17.6006,11.79845 17.6006,13.37695 C17.6006,15.39045 16.1966,17.07695 14.3236,17.50545 L14.3386,17.43995 L14.8601,14.10695 C14.9201,13.72745 14.8111,13.33995 14.5606,13.04695 C14.3091,12.75245 13.9426,12.58345 13.5556,12.58345 C13.2744571,12.58345 13.0028653,12.6730827 12.7773493,12.8381789 L12.6686,12.92695 L10.1776,15.20995 C10.0786,15.3006167 9.99026667,15.3988389 9.91008148,15.50195 L9.7956,15.65995 L7.2976,14.21695 C7.0267875,14.0607625 6.70161562,14.0408563 6.41721328,14.1579012 L6.2981,14.21645 L3.5986,15.77145 C3.32304444,15.9301167 3.14151358,16.2088821 3.10457531,16.5199548 L3.0976,16.63795 L3.0976,17.42845 C1.5376,16.93695 0.4006,15.47595 0.4006,13.74595 C0.4006,12.34645 1.1556,11.06245 2.3526,10.38045 C2.4546,8.55845 3.9601,7.10745 5.7956,7.10745 C6.0661,7.10745 6.3351,7.14045 6.6011,7.20545 C7.5941,6.39345 8.8276,5.94995 10.1066,5.94995 Z M18.1771,0.50545 C19.0666,0.27145 19.9621,0.27545 20.7981,0.47495 C18.8731,1.40045 17.8096,3.58595 18.3726,5.72895 C19.0046,8.13545 21.4486,9.57995 23.8551,8.98995 C23.1501,9.92345 22.1411,10.63845 20.9216,10.95895 C20.0096,11.19845 19.0911,11.18895 18.2371,10.97395 C17.8056,10.09545 17.1466,9.33345 16.2986,8.78995 C15.8136,7.70245 15.0731,6.79195 14.1616,6.11395 C13.9791,3.57045 15.6206,1.17645 18.1771,0.50545 Z" id="Shape" fill="#262626"></path>
    </g>
</svg>

<svg width="24" height="24" xmlns="http://www.w3.org/2000/svg"><path d="M11.199 19.171a.138.138 0 01.23.077v.046l-.47 3a1.201 1.201 0 01-1.372 1c-.954-.149-1.337-1.29-.713-1.985l.087-.088 2.238-2.05zm-3.72-3.348l1.039.6-.68 1.178h1.36v1.2h-1.36l.68 1.179-1.04.6-.68-1.179-.68 1.179-1.04-.6.68-1.179h-1.36v-1.2h1.36l-.68-1.178 1.04-.6.68 1.178.68-1.178zm5.997-2.008a.12.12 0 01.197.062l.002.044-.522 3.334a1.301 1.301 0 01-1.487 1.085c-1.034-.162-1.448-1.403-.769-2.154l.091-.091 2.488-2.28zm-3.37-7.865a5.56 5.56 0 015.234 3.674 4.25 4.25 0 012.26 3.753c0 2.013-1.403 3.7-3.276 4.128l.015-.065.521-3.333a1.32 1.32 0 00-2.083-1.269l-.108.089-2.491 2.283a2.35 2.35 0 00-.268.292l-.114.158-2.498-1.443a1 1 0 00-.88-.06l-.12.06-2.7 1.554a1 1 0 00-.493.749l-.007.118v.79A3.862 3.862 0 01.4 13.746c0-1.4.755-2.684 1.952-3.366.102-1.822 1.607-3.273 3.443-3.273.27 0 .54.033.805.098a5.53 5.53 0 013.506-1.255zM18.178.505a5.37 5.37 0 012.621-.03 4.548 4.548 0 003.057 8.515 5.377 5.377 0 01-2.933 1.969c-.912.24-1.83.23-2.685.015A5.424 5.424 0 0016.3 8.79a6.749 6.749 0 00-2.137-2.676A5.403 5.403 0 0118.177.505z" fill="#000" fill-rule="evenodd"/></svg>
